!!!!SEGMENT: pl-wnifc--1816-n--003_lipski-stanislaw--12-piesni-op-9-piosenka-dziewczyny-kozackiej.krn
!!!cenid: 18xx:3878
!!!COM: Lipski, Stanisław
!!!COM-rismID: pe50044081
!!!CDT: 1880-1937
!!!CNT: Polish
!!!GTL: 12 pieśni op. 9
!!!OTL: Piosenka dziewczyny kozackiej
!!!OMV: 003
!!!PDT:
!!!AGN:
!!!SMS-siglum: PL-Wnifc
!!!SMS-shelfmark: 1816/n
!!!SMS-shelfwork: 001-003 G
!!!SMS-variant:
!!!SMS-altvar:
!!!NIFC-rismSourceID: 1001156167
!!!NIFC-rismChildID: 1001156172
!!!NIFC-islandoraID: nifc:211804
!!!URL-pdf-islandora: https://repozytorium.nifc.pl/islandora/object/nifc%3A211804/datastream/PDF/view
!!!URL-scan: https://polish.musicsources.pl/pl/lokalizacje/galeria/druki-muzyczne/16804 @EN{Scan on Polish Music Sources Website} @PL{Skany w portalu Dziedzictwo Muzyki Polskiej w otwartym dostępie}
!!!IIIF:
!!!ONB-nifc:
!!!AIN: 2 piano 1 soprn
!!!key: a
**kern	**fing	**dynam	**kern	**fing	**dynam	**kern	**text	**text	**dynam
*part3	*part3	*part3	*part2	*part2	*part2	*part1	*part1	*part1	*part1
*staff3	*	*	*staff2	*	*	*staff1	*staff1	*staff1	*
*I"PIANO.	*	*	*I"PIANO.	*	*	*I"CANTO.	*	*	*
*I'pf	*	*	*I'pf	*	*	*I'S	*	*	*
*ICklav	*	*	*ICklav	*	*	*ICvox	*	*	*
*Ipiano	*	*	*Ipiano	*	*	*Isoprn	*	*	*
*clefF4	*	*	*clefG2	*	*	*clefG2	*	*	*
*k[]	*	*	*k[]	*	*	*k[]	*	*	*
*a:	*	*	*a:	*	*	*a:	*	*	*
*M6/8	*	*	*M6/8	*	*	*M6/8	*	*	*
*	*	*	*^	*	*	*	*	*	*
!	!	!	!	!	!	!	!LO:TX:a:B:t=Non troppo lento, ma espressivo.	!	!	!
8r	.	.	[8ee/	8r	.	p	8r	.	.	.
=1	=1	=1	=1	=1	=1	=1	=1	=1	=1	=1
!LO:TX:b:i:t=con Pedale	!	!	!	!	!	!	!	!	!	!
4.DD/ 4.D	.	.	8ee/L]	(4.f\	.	.	2.r	.	.	.
.	.	.	8dd/	.	.	.	.	.	.	.
.	.	.	[<8a/J	.	.	.	.	.	.	.
4.AAA/ 4.AA	.	.	4cc/	4.e\) 4.a]	.	.	.	.	.	.
.	.	.	[8ee^/	.	.	.	.	.	.	.
=2	=2	=2	=2	=2	=2	=2	=2	=2	=2	=2
4.DD/ 4.D	.	.	8ee/L]	(4.f\	.	.	2.r	.	.	.
.	.	.	8dd/	.	.	.	.	.	.	.
.	.	.	8a/J	.	.	.	.	.	.	.
(4AAA/ 4AA	.	.	4.cc/	4.e\)	.	.	.	.	.	.
8GGG/ 8GG	.	.	.	.	.	.	.	.	.	.
=3	=3	=3	=3	=3	=3	=3	=3	=3	=3	=3
4.FFF/) 4.FF	.	.	8.a/L	4.c\ 4.e	.	.	2.r	.	.	.
.	.	.	16a/K	.	.	.	.	.	.	.
.	.	.	(8a/J	.	.	.	.	.	.	.
4.GGG/ 4.GG	.	.	4d/) 4g	4.B\	.	.	.	.	.	.
.	.	.	8g/	.	.	.	.	.	.	.
=4	=4	=4	=4	=4	=4	=4	=4	=4	=4	=4
*	*	*	*	*^	*	*	*	*	*	*
4.CC/ 4.C	.	.	2.e/	4.G\	4d/	.	.	2.r	.	.	.
.	.	.	.	.	8c/	.	.	.	.	.	.
4.EE;</ 4.BB 4.E	.	.	.	4.G#X\	4.B;/	.	.	.	.	.	.
*	*	*	*	*v	*v	*	*	*	*	*	*
=5||	=5||	=5||	=5||	=5||	=5||	=5||	=5||	=5||	=5||	=5||
*	*	*	*	*	*	*	*^	*	*	*
!	!	!	!	!	!	!	!LO:TX:a:t=(wie zu sich sprechend)	!	!	!	!
!	!	!	!	!	!	!	!LO:TX:a:t=(Jakby do siebie)	!	!	!	!
[4.FF/ [4.F	.	.	(4.e/	[4.A\	.	.	8ee\	2ryy	Dzi-	Heu-	.
.	.	.	.	.	.	.	8ee\	.	-siaj	-te	.
.	.	.	.	.	.	.	8ee\	.	i	und	.
4.FF/] 4.F]	.	.	4d/)	4.A\]	.	.	4dd\	.	co	täg-	.
.	.	.	.	.	.	.	.	8ryy	.	.	.
.	.	.	8e/	.	.	.	16a\	8a/	dnia	-lich	.
*	*	*	*	*	*	*	*cue	*	*	*	*
.	.	.	.	.	.	.	16a\	.	.	im	.
!!LO:LB:g=original	!	!	!	!	!	!	!	!
*	*	*	*	*	*	*	*Xcue	*	*	*	*
=6	=6	=6	=6	=6	=6	=6	=6	=6	=6	=6	=6
*	*	*	*	*^	*	*	*	*	*	*	*
((4.DD/ 4.D	.	.	(4.f/	[4.A\ 4.d	4.ryy	.	<	8a/	8a\L	z blas-	Mon-	.
.	.	.	.	.	.	.	.	8b/	8b\J	-kiem	.	.
.	.	.	.	.	.	.	.	8cc\	2ryy	mie-	-den-	.
[4.CC/)) [4.C	.	.	[4.a/	4.A\_	4e/)	.	[ >	4a/	.	-sią-	-schei-	.
.	.	.	.	.	8d#X/	.	]	8f/	.	-ca	-ne	.
*	*	*	*	*	*	*	*	*v	*v	*	*	*
=7	=7	=7	=7	=7	=7	=7	=7	=7	=7	=7	=7
4.CC/] 4.C]	.	.	4.a/]	4.A\]	4.e/	.	.	8e/	I-	Geh'	.
.	.	.	.	.	.	.	.	8e/	-dę	ich	.
.	.	.	.	.	.	.	.	8e/	w las	im	.
4.BBB/ 4.BB	.	.	[4A/ [>4d [4f [4a	4.ryy	4.ryy	.	.	8d/	kry-	Wal-	.
.	.	.	.	.	.	.	.	8f/	-tą	-de	.
.	.	.	(16A/LL] 16d] 16f] 16a]	.	.	.	.	8a/	dro-	tief	.
.	.	.	16B/JJ) 16b	.	.	.	.	.	.	.	.
*	*	*	*v	*v	*v	*	*	*	*	*	*
=8	=8	=8	=8	=8	=8	=8	=8	=8	=8
*	*	*	*	*	*	*^	*	*	*
((4.AAA/ 4.AA	.	.	(8c/L 8e 8a 8cc	.	<	(>4.cc/	4.ryy	-ży-	drin-	.
.	.	.	8d/ 8dd	.	.	.	.	.	.	.
.	.	.	8d#X/J) 8dd#X	.	[	.	.	.	.	.
((8GGG/)) 8GG	.	.	4e/ 4b 4ee	.	.	4e/)	4.e\	-ną,	-nen.	.
((4FFF#X/)) 4FF#X	.	.	.	.	.	.	.	.	.	.
.	.	.	[8e^>/ [8ee	.	.	8e/	.	Wy-	.	.
!!LO:LB:g=original	!	!	!	!	!	!	!
=9	=9	=9	=9	=9	=9	=9	=9	=9	=9	=9
*	*	*	*^	*	*	*	*	*	*	*
4.FFFn/)) 4.FFn	.	.	8e/L] 8ee]	4.a\	.	.	8ee\	4ee/	-bie-	Su-	.
*	*	*	*	*	*	*	*cue	*	*	*	*
.	.	.	8dn/ 8ddn	.	.	.	8ee\	.	.	-che	.
*	*	*	*	*	*	*	*Xcue	*	*	*	*
.	.	.	8c/J 8cc	.	.	.	8ee\	8ee/	-ram	von	.
(8CC/L 8C	.	.	4d/ 4f#X 4a 4dd	4ryy	.	.	4dd\	8ryy	kwiat	al-	.
8BBB/ 8BB	.	.	.	.	.	.	.	4ryy	.	.	.
((8AAA/J) 8AA	.	.	(16a/LL	8d\ 8e#X	.	.	(16a/LL	.	ten	-len	.
.	.	.	16b/JJ)	.	.	.	16b/JJ)	.	.	.	.
*	*	*	*	*	*	*	*v	*v	*	*	*
!!LO:LB:g=original	!	!	!	!	!	!	!
=10	=10	=10	=10	=10	=10	=10	=10	=10	=10	=10
[4.GGG/)) [4.GG	.	.	8cc/L	4c\ 4e-X 4f#X	.	.	8cc\	z kwia-	Blu-	.
.	.	.	8b/	.	.	.	8b\	-tów	-men	.
.	.	.	8a/J	8c\ 8d#X 8f#	.	.	8a/	ty-	die	.
8GGG/] 8GG]	.	.	(4b/	4B\ 4d# 4g	.	.	4b\	-sią-	Ei-	.
4GGG/ 4GG	.	.	.	.	.	.	.	.	.	.
.	.	.	8g/)	8B\ 8en	.	.	8g/	-ca,	-nen,	.
=11	=11	=11	=11	=11	=11	=11	=11	=11	=11	=11
*	*	*	*	*^	*	*	*^	*	*	*
[4.CC/ [4.C	.	.	N[<4G/ N[4en	8dn\L	4.ryy	.	.	16r	2ryy	.	.	.
.	.	.	.	.	.	.	.	16e/	.	Nad	Zu	.
.	.	.	.	8c\	.	.	.	8e/	.	któ-	de-	.
.	.	.	8ryy	8B\J	.	.	.	8e/	.	-rym	-ren	.
8CC/] 8C]	.	.	4e/N]	4G\N]	4B/	.	.	4g/	.	ros-	Häup-	.
4CC/ 4C	.	.	.	.	.	.	.	.	8ryy	.	.	.
.	.	.	[8e/	[8G\ [8B	8ryy	.	.	16f\	8f/	-ła	-tern	.
*	*	*	*	*	*	*	*	*cue	*	*	*	*
.	.	.	.	.	.	.	.	16f\	.	.	die	.
*	*	*	*	*	*	*	*	*Xcue	*	*	*	*
=12	=12	=12	=12	=12	=12	=12	=12	=12	=12	=12	=12	=12
*^	*	*	*	*	*	*	*	*	*	*	*	*
8.C/L	(8CC\L	.	.	8e/L]	8G\L] 8B]	2.r	.	.	8e/	8e\L	brzo-	Bir-	.
.	8CC\)	.	.	8f#X/	8F#X\ 8B-X 8d	.	.	.	8f#X/	8f#\J	-za	.	.
[16D/K	.	.	.	.	.	.	.	.	.	.	.	.	.
8D/J]	8EE\J	.	.	8g#X/J	8G#X\J 8Bn 8d	.	.	.	8g#X/	2ryy	pła-	-ken	.
((4.EE-X/ 4.E-X	4.ryy	.	.	4.A/ 4.c 4.fn 4.a	8ryy	.	.	.	4a/	.	-czą-	wei-	.
.	.	.	.	.	4ryy	.	.	.	.	.	.	.	.
.	.	.	.	.	.	.	.	.	8a/	.	-ca	-nen	.
*v	*v	*	*	*	*	*	*	*	*v	*v	*	*	*
*	*	*	*v	*v	*v	*	*	*	*	*	*
!!LO:PB:g=original	!	!	!	!	!	!
=13	=13	=13	=13	=13	=13	=13	=13	=13	=13
4DD/)) 4D	.	.	4A/ 4c 4f 4a	.	.	16r	.	.	.
.	.	.	.	.	.	16a/	Nad	All-	.
.	.	.	.	.	.	8a/	któ-	-wo	.
8CC/ 8C	.	.	8A/ 8d 8f 8a	.	.	8a/	-rym	die	.
4BBB/ 4BB	.	.	(8d/L 8f 8a 8dd	.	<	(4dd\	łzy	Trä-	.
.	.	.	8e/ 8ee	.	.	.	.	.	.
8AAA/ 8AA	.	.	8f/J) 8a 8dd 8ff	.	[[	8a/)	.	-nen	.
=14	=14	=14	=14	=14	=14	=14	=14	=14	=14
*	*	*	*^	*	*	*^	*	*	*
((4.GGG/ 4.GG	.	.	4.f/ 4.g 4.b 4.ff	4.ryy	.	>	(8a/L	8a\L	mo-	mein	.
.	.	.	.	.	.	.	8g/J)	8g\	.	.	.
.	.	.	.	.	.	.	8f/	8f\J	-je	.	.
4.CC/)) 4.C	.	.	8b/L	4.e\ [>4.ee	.	]	4e/	4.ryy	pły-	rin-	.
.	.	.	8a/	.	.	.	.	.	.	.	.
.	.	.	8g/J	.	.	.	8e/	.	-ną.	-nen.	.
*	*	*	*	*	*	*	*v	*v	*	*	*
=15	=15	=15	=15	=15	=15	=15	=15	=15	=15	=15
4.DD/ 4.D	.	.	8ee/L]	[4.f\	.	.	2.r	.	.	.
.	.	.	8ff/	.	.	.	.	.	.	.
.	.	.	8a/J	.	.	.	.	.	.	.
((4.AAA/ 4.AA	.	.	[4.cc/	8f\L]	.	.	.	.	.	.
.	.	.	.	8.d#X\	.	.	.	.	.	.
.	.	.	.	16e\Jk	.	.	.	.	.	.
=16	=16	=16	=16	=16	=16	=16	=16	=16	=16	=16
*	*	*	*	*	*	*	*^	*	*	*
*	*	*	*	*	*	*	*	*cue	*	*	*
4.BBB-X/)) 4.BB-X	.	.	(8cc/L]	4.dn\ 4.f	.	.	8f/	8r	Jak	.	.
.	.	.	8b-X/	.	.	.	8.f/	16r	z o-	.	.
.	.	.	.	.	.	.	.	16f\	.	Die	.
.	.	.	8f/J	.	.	.	.	16f\	.	Men-	.
.	.	.	.	.	.	.	16f/	16f\	-błą-	-schen	.
*	*	*	*	*	*	*	*	*Xcue	*	*	*
((4.DD/ 4.D	.	.	(4f/) 4b-	8.B-X\L	.	.	4b-X\	8ryy	-ka-	la-	.
.	.	.	.	.	.	.	.	4ryy	.	.	.
.	.	.	.	16B-\K	.	.	.	.	.	.	.
.	.	.	8f/) 8a	(8Bn\J	.	.	8a/	.	-nej	-chen,	.
*	*	*	*	*	*	*	*v	*v	*	*	*
!!LO:LB:g=original	!	!	!	!	!	!	!
=17	=17	=17	=17	=17	=17	=17	=17	=17	=17	=17
(8DD/L)) 8D	.	.	8.g#X/L	8B\L)	.	.	8.g#X/	lu-	wenn	.
8CC/ 8C	.	.	.	8c\	.	.	.	.	.	.
.	.	.	16a/K	.	.	.	16a/	-dzie	sie	.
8BBB/J 8BB	.	.	8g#/J 8b	8d\J	.	.	8bn\	się	mich	.
4.AAA/) 4.AA	.	.	4.c/ 4.cc	(8b\L	.	.	4cc\	śmie-	se-	.
.	.	.	.	8a\	.	.	.	.	.	.
.	.	.	.	8e\J)	.	.	8a/	-ją	-hen,	.
*	*	*	*v	*v	*	*	*	*	*	*
=18	=18	=18	=18	=18	=18	=18	=18	=18	=18
*	*	*	*	*	*	*^	*	*	*
4.GGG#X/ 4.GG#X	.	.	[4.B/ [4.d [<4.f [4.b	.	.	16r	8b\	.	Wis	.
.	.	.	.	.	.	16b/	.	nie-	.	.
.	.	.	.	.	.	8b\	8ryy	-zna-	.	.
.	.	.	.	.	.	8cc\	4ryy	-ją	nicht,	.
4.GGGn/ 4.GGn	.	.	8B/L] 8d] 8f] 8b]	.	.	8.dd\	.	cięż-	was	.
.	.	.	8c/ 8cc	.	.	.	4ryy	.	.	.
.	.	.	.	.	.	16cc\	.	-kiej	ich	.
.	.	.	8d/J 8f 8b 8dd	.	.	8b\	.	mej	be-	.
=19	=19	=19	=19	=19	=19	=19	=19	=19	=19	=19
*^	*	*	*	*	*	*	*	*	*	*
.	(<(4qqCC\ 4qqC	.	.	.	.	.	.	.	.	.	.
!	!	!	!	!	!	!	!	!	!	!	!LO:DY:a
([<4.C/ 4.F 4.A-X [4.c	2.CC;\)) 2.C	.	.	((4.f\ 4.a-X [4.cc 4.ff	.	.	4.ff\	4.ryy	stra-	-wei-	>
4.C;/]) 4.E 4.G#X 4.c]	.	.	.	[4.e;/)) 4.g#X 4.cc_ [4.ee	.	.	4.ee;/	4ee\	-ty	-ne,	]
!	!	!	!	!	!	!	!	!	!	!	!LO:DY:a
*	*	*	*	*	*	*	*	*cue	*	*	*
.	.	.	.	.	.	.	.	8ee\	.	Ich	p
*	*	*	*	*	*	*	*	*Xcue	*	*	*
*v	*v	*	*	*	*	*	*	*	*	*	*
=20	=20	=20	=20	=20	=20	=20	=20	=20	=20	=20
*	*	*	*^	*	*	*	*	*	*	*
!	!	!	!	!	!	!	!	!	!	!	!LO:DY:a
(16FFF/LL	.	.	8e/L] 8cc] 8ee]	4.an\	.	p	8ee/	8ee\L	Ja	pflü-	>
16FF/	.	.	.	.	.	.	.	.	.	.	.
!	!	!LO:HP:a	!	!	!	!	!	!	!	!	!
16AA/	.	>	8d/ 8dd	.	.	.	8dd/	8dd\J	zbie-	.	.
16D/	.	.	.	.	.	.	.	.	.	.	.
16F/	.	.	8c/J 8cc	.	.	.	8cc\	2ryy	-ram	-cke	]
16A/JJ)	.	]	.	.	.	.	.	.	.	.	.
16r	.	.	(>4d/ 4f 4a 4dd	8ryy	.	.	(4dd\	.	kwia-	Blu-	.
(16BBB/LL	.	.	.	.	.	.	.	.	.	.	.
16FF/	.	.	.	4ryy	.	.	.	.	.	.	.
16AA/	.	.	.	.	.	.	.	.	.	.	.
16BB/	.	.	8A/) 8d 8f 8a	.	.	.	8a/)	.	-ty	-men,	.
16D/JJ)	.	.	.	.	.	.	.	.	.	.	.
*	*	*	*v	*v	*	*	*	*	*	*	*
*	*	*	*	*	*	*v	*v	*	*	*
!!LO:LB:g=original	!	!	!	!	!	!
=21	=21	=21	=21	=21	=21	=21	=21	=21	=21
(16GGG/LL	.	.	16r	.	.	8dd\	kwia-	Blu-	.
16EE/	.	.	8G#X/L 8c 8e 8g#X	.	.	.	.	.	.
16E/	.	.	.	.	.	8cc\	-ty	-men	.
16D/	.	.	16A/K 16d 16f 16a	.	.	.	.	.	.
16C/	.	.	8B/J 8d 8f 8b	.	.	8b\	wię-	ver-	.
16BB/JJ	.	.	.	.	.	.	.	.	.
*	*below	*	*	*	*	*	*	*	*
16AA/LL	1	.	4c/ 4e 4a	.	.	4cc\	-dnie-	-ge-	.
16GG/	.	.	.	.	.	.	.	.	.
16FF#X/	.	.	.	.	.	.	.	.	.
16FFn/	1	.	.	.	.	.	.	.	.
16EE/	.	.	[8A/ [8c [<8e [8a	.	.	8a/	-ją	-hen,	.
16DD/JJ	.	.	.	.	.	.	.	.	.
=22	=22	=22	=22	=22	=22	=22	=22	=22	=22
*^	*	*	*^	*	*	*	*	*	*
!	!	!	!	!LO:TX:b:i:t=rit.	!	!	!	!LO:TX:a:i:t=lento	!	!	!
16CC/LL	4.ryy	1	.	8A/] 8c] 8e] 8a]	8r	.	.	16r	.	.	.
16BBB/	.	.	.	.	.	.	.	16e/	Ja	Ich	.
16AAA/	.	3	.	8.e/L	4A\ 4c	.	.	8e/	zno-	ho-	.
16GGG/	.	1	.	.	.	.	.	.	.	.	.
16FFF#X/	.	3	.	.	.	.	.	8e/	-wu	-le	.
16FFFn/JJ)	.	4	.	16e/Jk	.	.	.	.	.	.	.
16EEE/KL	4.EEE\	.	.	4d/ 4f	8A\	.	.	8f/	i-	Blu-	.
8EE/	.	.	.	.	.	.	.	.	.	.	.
.	.	.	.	.	4G#X\	.	.	8fZ/	-dę	-men	.
8EE/	.	.	.	.	.	.	.	.	.	.	.
.	.	.	.	8d/ [8e	.	.	.	8cc\	po	al-	.
16EE/Jk	.	.	.	.	.	.	.	.	.	.	.
*v	*v	*	*	*	*	*	*	*	*	*	*
*	*	*	*v	*v	*	*	*	*	*	*
=23	=23	=23	=23	=23	=23	=23	=23	=23	=23
*8ba	*	*	*	*	*	*	*	*	*
*	*	*	*^	*	*	*	*	*	*
!	!	!	!LO:TX:b:i:t=riten.	!	!	!	!LO:TX:a:i:t=riten.	!	!	!
4.AAAA/ 4.AAA	.	.	8e/L]	4A\ 4c	.	.	[4a/	kwia-	-lei-	.
.	.	.	8d/ 8f	.	.	.	.	.	.	.
.	.	.	[8a/J [8cc	8r	.	.	8a/_	-ty.	-ne.	.
*	*	*	*v	*v	*	*	*	*	*	*
*X8ba	*	*	*	*	*	*	*	*	*
*	*	*	*^	*	*	*	*	*	*
4.AAA/ 4.AA	.	.	4a/] 4cc]	4c\ 4e	.	.	4a/]	.	.	.
.	.	.	(8ee/	8r	.	.	8r	.	.	.
=24	=24	=24	=24	=24	=24	=24	=24	=24	=24	=24
!	!	!	!LO:TX:i:b:t=come sopra	!	!	!	!	!	!	!
4.DD/ 4.D	.	.	8ee/L)	4.f\	.	.	2.r	.	.	.
.	.	.	8dd/	.	.	.	.	.	.	.
.	.	.	[8a/J	.	.	.	.	.	.	.
4.AAA/ 4.AA	.	.	4a/_ [<4cc	[4e\	.	.	.	.	.	.
.	.	.	[8ee/	8e\] 8a] 8cc]	.	.	.	.	.	.
=25	=25	=25	=25	=25	=25	=25	=25	=25	=25	=25
(4BBB-X/ 4BB-X	.	.	8ee/L]	4.f\	.	.	2.r	.	.	.
.	.	.	8dd/	.	.	.	.	.	.	.
8BBBn/ 8BBn	.	.	8a-X/J	.	.	.	.	.	.	.
4CC/ 4C	.	.	4cc/	4e-X\ 4a-	.	.	.	.	.	.
8CC#X/) 8C#X	.	.	(8b-X/	8en\ 8g	.	.	.	.	.	.
=26	=26	=26	=26	=26	=26	=26	=26	=26	=26	=26
*	*	*	*	*^	*	*	*	*	*	*
4DD/ 4D	.	.	(8an/L)	8e\L	4f/	.	.	2.r	.	.	.
.	.	.	8a/)	8d\	.	.	.	.	.	.	.
4FF/ 4F	.	.	8f/J 8a	8c\J	2ryy	.	.	.	.	.	.
.	.	.	8.g/L	4.B\ 4.d	.	.	.	.	.	.	.
(8EE/L 8E	.	.	.	.	.	.	.	.	.	.	.
.	.	.	16g/K	.	.	.	.	.	.	.	.
8DD/J) 8D	.	.	8g/J	.	.	.	.	.	.	.	.
*	*	*	*	*v	*v	*	*	*	*	*	*
=27	=27	=27	=27	=27	=27	=27	=27	=27	=27	=27
4CC/ 4C	.	.	[4.c/ [4.e	4.G\	.	.	2.r	.	.	.
((8BBB/ 8BB/L	.	.	.	.	.	.	.	.	.	.
8BBB/)) 8BB/J	.	.	4.c/] 4.e_	4.G#X\	.	.	.	.	.	.
4BBB-X/ 4BB-X	.	.	.	.	.	.	.	.	.	.
!!LO:PB:g=original	!	!	!	!	!	!	!	!	!	!
=28	=28	=28	=28	=28	=28	=28	=28	=28	=28	=28
*	*	*	*	*	*	*	*^	*	*	*
!	!	!	!	!	!	!	!LO:TX:a:t=(wie zu sich sprechend)	!	!	!	!
!	!	!	!	!	!	!	!LO:TX:a:t=(jakby do siebie)	!	!	!	!
[4.AAA/ [4.AA	.	.	8.e/L]	4.Gn\ [4.c	.	.	8.e/	8e\	Nie-	Oft	.
*	*	*	*	*	*	*	*	*cue	*	*	*
.	.	.	.	.	.	.	.	8.e\	.	fließt	.
.	.	.	16e/K	.	.	.	16e/	.	-raz	.	.
.	.	.	8e/J	.	.	.	8e/	.	łza	.	.
*	*	*	*	*Xtuplet	*	*	*	*Xcue	*	*	*
.	.	.	.	.	.	.	.	16e\	.	die	.
!LO:TUP:b:problem:klamra łukowa	!	!	!LO:TUP:a:problem:klamra łukowa	!	!	!	!LO:TUP:a:problem:klamra łukowa	!	!	!	!
16%3AAA/L] 16%3AA]	.	.	16%3f/L	16%3A\L 16%3c]	.	.	16%3b-X\	16ryy	pły-	bitt'-	.
.	.	.	.	.	.	.	.	16ryy	.	.	.
.	.	.	.	.	.	.	.	4ryy	.	.	.
[16%3GGG/J [16%3GG	.	.	16%3g/J	16%3B-X\J 16%3c	.	.	16%3b-\	.	-nie	-re	.
*	*	*	*	*	*	*	*v	*v	*	*	*
=29	=29	=29	=29	=29	=29	=29	=29	=29	=29	=29
8GGG/] 8GG]	.	.	((2.A\ 2.a	(4.c#X/	.	.	8.a/	gorż-	Trä-	.
[4FFF/ [4FF	.	.	.	.	.	.	.	.	.	.
.	.	.	.	.	.	.	16a/	-ka	-ne	.
.	.	.	.	.	.	.	8a/	u-	her-	.
4FFF/] 4FF]	.	.	.	4.d/)	.	.	4dd\	-kry-	-nie-	.
8FFF#X/ 8FF#X	.	.	.	.	.	.	16cc\	-ta,	-der,	.
.	.	.	.	.	.	.	16cc\	Bo	Weil	.
*	*	*	*v	*v	*	*	*	*	*	*
=30	=30	=30	=30	=30	=30	=30	=30	=30	=30
[4.GGG/ [4.GG	.	.	[4.B-X/)) [4.d [<4.f [4.b-X	.	.	(8b-X\L	cięż-	her-	.
.	.	.	.	.	.	8cc\J)	.	.	.
.	.	.	.	.	.	8dd\	-kiej	-bes	.
4.GGG/_ 4.GG_	.	.	4.B-/] 4.d] 4.f] 4.b-]	.	.	8ee\	pła-	Leid	.
.	.	.	.	.	.	8dd\	-czę	ich	.
.	.	.	.	.	.	8cc#X\	ja	er-	.
=31	=31	=31	=31	=31	=31	=31	=31	=31	=31
4GGG/] 4GG]	.	.	[4.A/ 4.c#X 4.e#X [4.a	.	.	4a/	zgu-	-lit-	.
[8FFF/ [8FF	.	.	.	.	.	[8a/	-by,	-ten	.
4FFF/] 4FF]	.	.	4.A/] 4.d 4.f 4.a]	.	.	8a/]	.	.	.
.	.	.	.	.	.	8r	.	.	.
8AAA/ 8AA	.	.	.	.	.	8r	.	.	.
!!LO:LB:g=original	!	!	!	!	!	!	!	!	!
=32	=32	=32	=32	=32	=32	=32	=32	=32	=32
*	*	*	*	*	*	*^	*	*	*
((2.CC:/ 2.GG: 2.E:	.	.	4.B-X/ 4.d 4.g	.	.	8g/	8.r	Patrz	.	.
.	.	.	.	.	.	8r	.	.	.	.
*	*	*	*	*	*	*	*cue	*	*	*
.	.	.	.	.	.	.	16g\	.	Die	.
*	*	*	*	*	*	*	*Xcue	*	*	*
.	.	.	.	.	.	16g/	16g\	o-	wil-	.
.	.	.	.	.	.	16g/	16g\	-to	-de	.
.	.	.	(>4c/ 4e 4a	.	.	4cc\	8ryy	ró-	Ro-	.
.	.	.	.	.	.	.	4ryy	.	.	.
.	.	.	8d/) 8f 8b-X	.	.	8b-X\	.	-ża	-se	.
*	*	*	*	*	*	*v	*v	*	*	*
=33	=33	=33	=33	=33	=33	=33	=33	=33	=33
*	*	*	*^	*	*	*	*	*	*
*	*	*	*	*^	*	*	*	*	*	*
4.FF/)) 4.F	.	.	4f/ 4a	[4.c\	4.ryy	.	<	8.a/	pol-	blü-	.
.	.	.	.	.	.	.	.	16a/	-na	-het	.
.	.	.	8a/	.	.	.	.	8a/	roz-	nun	.
!	!	!	!	!LO:TX:b:i:t=poco a poco più mosso	!	!	!	!	!	!	!
4.FF#X/ 4.F#X	.	.	4dd/	4c\]	8g#X/	.	[	4dd\	-kwi-	wie-	.
.	.	.	.	.	[<4a/	.	.	.	.	.	.
.	.	.	8cc/	8d\	.	.	.	8cc\	-ta	-der,	.
=34	=34	=34	=34	=34	=34	=34	=34	=34	=34	=34	=34
*	*	*	*	*	*	*	*	*^	*	*	*
!	!	!	!	!	!	!	!	!LO:TX:i:a:t=poco string.	!	!	!	!
4.GG/ 4.G	.	.	4b-X/	[4.d\	8a\]	.	.	8b-X\	4.ryy	Bia-	Mai-	.
.	.	.	.	.	4g\	.	.	8cc\	.	-ła	-glö-	.
.	.	.	8b-/	.	.	.	.	8dd\	.	kon-	-ckchen	.
4.GG#X/ 4.G#X	.	.	4ee/	4d\]	8a#X/	.	.	4ee/	4ee\	-wa-	blü-	.
.	.	.	.	.	[<4bn/	.	.	.	.	.	.	.
.	.	.	8dd/	[8e\	.	.	.	8dd/	16dd\	-lia	-het,	.
*	*	*	*	*	*	*	*	*	*cue	*	*	*
.	.	.	.	.	.	.	.	.	16dd\	.	es	.
*	*	*	*	*	*	*	*	*	*Xcue	*	*	*
*	*	*	*	*	*	*	*	*v	*v	*	*	*
=35	=35	=35	=35	=35	=35	=35	=35	=35	=35	=35	=35
[4.AA\ [4.A	.	.	4cc#X/	(4.e\]	8b\]	.	.	8cc#X\	z ró-	blü-	.
.	.	.	.	.	4a\	.	.	8cc#\	-żą	-het	.
.	.	.	[8cc#/	.	.	.	.	16r	.	.	.
.	.	.	.	.	.	.	.	16cc#\	u-	der	.
8AA\] 8A]	.	.	(4ff/	4f\)	4.cc#\]	.	.	4ff\	-wi-	Flie-	.
4AA#X\ 4A#X	.	.	.	.	.	.	.	.	.	.	.
.	.	.	8ee/)	8g\	.	.	.	8ee\	-ta	-der	.
*	*	*	*v	*v	*v	*	*	*	*	*	*
!!LO:LB:g=original	!	!	!	!	!	!	!	!	!
=36	=36	=36	=36	=36	=36	=36	=36	=36	=36
(>8qBB/	.	.	.	.	.	.	.	.	.
*	*	*	*^	*	*	*	*	*	*
8B^\L) 8g#X	.	.	4r	4.ryy	.	.	4r	.	.	.
8A^\ 8f#X	.	.	.	.	.	.	.	.	.	.
8G#X^\J 8e	.	.	16r	.	.	.	16r	.	.	.
!	!	!	!	!	!	!	!LO:TX::ia:t=appass.	!	!	!LO:DY:a
.	.	.	[16ee\	.	.	.	16ee\	Mój	Mein	<
!LO:TX:a:i:t=rit.	!	!	!	!	!	!	!LO:TX:a:i:t=e rit.	!	!	!LO:DY:a
16BB\LL 16G# 16B	.	.	4gg#X/	4.g#X\ 4.ee]	.	.	4gg#X\	dro-	Trau-	[ f
!	!	!LO:HP:a	!	!	!	!	!	!	!	!
(16BBB\	.	>	.	.	.	.	.	.	.	.
16GG#X\	.	.	.	.	.	.	.	.	.	.
16BB\	.	.	.	.	.	.	.	.	.	.
16E\	.	.	8ee/	.	.	.	8ee\	-gi	-ter	.
16G#\JJ	.	]	.	.	.	.	.	.	.	.
*	*	*	*v	*v	*	*	*	*	*	*
=37	=37	=37	=37	=37	=37	=37	=37	=37	=37
16B\LL	.	.	8g#X/L 8b	.	.	8b\	dro-	laß	.
16e\	.	.	.	.	.	.	.	.	.
16g#X\	.	.	8a/	.	.	8a/	-gi	dich	.
16e\	.	.	.	.	.	.	.	.	.
16B\	.	.	8g#/J	.	.	8g#X/	mój	er-	.
16G#X\JJ)	.	.	.	.	.	.	.	.	.
16r	.	.	((4.e/ 4.g# 4.ee	.	.	4ee\	lu-	-bit-	.
(16CC#X/LL	.	.	.	.	.	.	.	.	.
16GG#X/	.	.	.	.	.	.	.	.	.
16C#X/	.	.	.	.	.	.	.	.	.
16E/	.	.	.	.	.	[8g#/	-by.	-ten.	.
16G#/JJ	.	.	.	.	.	.	.	.	.
=38	=38	=38	=38	=38	=38	=38	=38	=38	=38
*	*	*	*^	*	*	*	*	*	*
4.B\)	.	.	4g#X/))	4.d#X\	.	.	4g#X/]	.	.	.
.	.	.	[8g#/	.	.	.	8ryy	.	.	.
(4.A\	.	.	8g#/L]	[4.c\	.	.	4r	.	.	.
.	.	.	(<8f/	.	.	.	.	.	.	.
.	.	.	[<8d#/J) 8f##X	.	.	.	8r	.	.	.
=39	=39	=39	=39	=39	=39	=39	=39	=39	=39	=39
[4.G#X\)	.	.	4.d#/_ [4.g#X	4c\]	.	.	4r	.	.	.
.	.	.	.	[8B#X\	.	.	8r	.	.	.
4.GG#X/ 4.G#]	.	.	4.d#/] 4.g#]	4.B#\]	.	.	4r	.	.	.
.	.	.	.	.	.	.	8g#X/	Czy	.	.
*	*	*	*v	*v	*	*	*	*	*	*
!!LO:LB:g=original	!	!	!	!	!	!	!	!	!
=40	=40	=40	=40	=40	=40	=40	=40	=40	=40
*	*	*	*	*	*	*^	*	*	*
!	!	!	!	!	!	!LO:TX:a:i:t=Quasi parlando	!	!	!	!
[4.FF#X/ [4.F#X	.	.	[4.c#X/ [4.e [4.a	.	.	(8a/L	8a\	na	Eilst-	.
.	.	.	.	.	.	8b/J)	8b\	.	-du	.
.	.	.	.	.	.	8cc#X\	2ryy	ślub	zur	.
4.FF#/] 4.F#]	.	.	4.c#/] 4.e] 4.a]	.	.	(4ee\	.	śpie-	Trau-	.
.	.	.	.	.	.	8dd#X\)	.	-szysz?	-ung,	.
*	*	*	*	*	*	*v	*v	*	*	*
=41	=41	=41	=41	=41	=41	=41	=41	=41	=41
[4.DD#X/ [4.D#X	.	.	[4.c#X/ [>4.f#X [4.a	.	.	16r	.	.	.
.	.	.	.	.	.	16dd#X\	czy	ach	.
.	.	.	.	.	.	8cc#X\	tam	laß	.
.	.	.	.	.	.	8a/	w koś-	mich	.
4DD#/] 4D#]	.	.	4c#/] 4f#] 4a]	.	.	4f#X/	-cie-	se-	.
8CC#X/ 8C#X	.	.	8A/ 8e 8a	.	.	16e/	-le	-hen	.
.	.	.	.	.	.	16e/	cze-	Die	.
=42	=42	=42	=42	=42	=42	=42	=42	=42	=42
*	*	*	*	*	*	*^	*	*	*
*	*	*	*	*	*	*	*cue	*	*	*
[4.GGG#X/ [4.GG#X	.	.	((4.B/ 4.d#X 4.g#X	.	.	(8d#X/L	8d#\	-ka-	BRaut-	.
.	.	.	.	.	.	8e/J)	8e\	.	-füh-	.
.	.	.	.	.	.	8f#X/	16f#\	-hą	-rer	.
.	.	.	.	.	.	.	16f#\	.	im	.
4.GGG#/_ 4.GG#_	.	.	((4.A/)) 4.c#X 4.f#X	.	.	8a/	8a\L	dru-	Kir-	.
.	.	.	.	.	.	8g#X/	8g#\J	-hy	-chen	.
.	.	.	.	.	.	16r	8f#\	.	.	.
*	*	*	*	*	*	*	*Xcue	*	*	*
.	.	.	.	.	.	16f#/	.	lub	.	.
*	*	*	*	*	*	*v	*v	*	*	*
=43	=43	=43	=43	=43	=43	=43	=43	=43	=43
4.GGG#/] 4.GG#]	.	.	[4.G#X/)) [4.B [4.d#X	.	.	4g#X/	swa-	schei-	.
.	.	.	.	.	.	8g#/	-ty	-ne.	.
8GGG#X/ 8GG#X	.	.	8G#/] 8B] 8d#]	.	.	4r	.	.	.
8r	.	.	8r	.	.	.	.	.	.
8r	.	.	8r	.	.	8r	.	.	.
!!LO:LB:g=original	!	!	!	!	!	!	!	!	!
=44	=44	=44	=44	=44	=44	=44	=44	=44	=44
!	!	!	!	!	!	!LO:TX:a:i:t=doloroso	!	!	!
4.GGn:\ 4.E: 4.A#X:	.	.	4.e:/ 4.a#X: 4.cc#X: 4.ee:	.	sfz >	8ee\	Ach!	Ach!	.
.	.	.	.	.	.	8r	.	.	.
.	.	.	.	.	.	16dd#X\	kwia-	nicht	.
.	.	.	.	.	.	16cc#X\	-ty	zur	.
4r	.	.	4r	.	]	8b\	zwię-	Hoch-	.
.	.	.	.	.	.	8a#X/	-dły,	-zeit,	.
8r	.	.	8r	.	.	8r	.	.	.
=45	=45	=45	=45	=45	=45	=45	=45	=45	=45
!	!	!	!	!	!	!LO:TX:a:t=parlando	!	!	!
2.r;	.	.	2.r;	.	.	8a#X/	nie	Blu-	.
.	.	.	.	.	.	8b\	na	-men	.
.	.	.	.	.	.	(8cc#X\	we-	ver-	.
.	.	.	.	.	.	(<4g/)	-se-	-ge-	.
.	.	.	.	.	.	8f#X/)	-le	-hen,	.
=46	=46	=46	=46	=46	=46	=46	=46	=46	=46
*^	*	*	*	*	*	*	*	*	*
2.E/ 2.F#X	(4.AA\	.	.	2.c;/ 2.e 2.f#X 2.ccn	.	.	2.r;	.	.	.
.	4.AA#X;\)	.	.	.	.	.	.	.	.	.
*v	*v	*	*	*	*	*	*	*	*	*
=47	=47	=47	=47	=47	=47	=47	=47	=47	=47
[4.BB\ 4.E 4.G	.	.	4.B/ 4.e 4.g 4.b	.	.	16r	.	.	.
.	.	.	.	.	.	16b\	Ja	Ich	.
.	.	.	.	.	.	8b\	zaw-	ho-	.
.	.	.	.	.	.	8b\	-sze	-le	.
4.BB\] 4.F#X	.	.	4.c/ 4.e 4.a	.	.	8cc\	i-	Blu-	.
.	.	.	.	.	.	8cc\	-dę	-men	.
.	.	.	.	.	.	8dd\	po	al-	.
=48	=48	=48	=48	=48	=48	=48	=48	=48	=48
16r	.	.	[4.B/ [4.e [4.b	.	.	(2.b\	kwia-	-lei-	.
(16EEE/LL	.	.	.	.	.	.	.	.	.
16EE/	.	.	.	.	.	.	.	.	.
16BB/	.	.	.	.	.	.	.	.	.
16E/	.	.	.	.	.	.	.	.	.
16BB/JJ)	.	.	.	.	.	.	.	.	.
(16EE\LL	.	.	8B/] 8e] 8b]	.	.	.	.	.	.
16BB\	.	.	.	.	.	.	.	.	.
16E\	.	.	[4b\ [4ee [4bb	.	.	.	.	.	.
16B\	.	.	.	.	.	.	.	.	.
16e\	.	.	.	.	.	.	.	.	.
16B\JJ)	.	.	.	.	.	.	.	.	.
!!LO:LB:g=original	!	!	!	!	!	!	!	!	!
=49	=49	=49	=49	=49	=49	=49	=49	=49	=49
*	*	*	*^	*	*	*	*	*	*
8e\L	.	.	4b/] 4ee] 4bb]	4r	.	.	4b\)	-ty.	-ne.	.
8E\	.	.	.	.	.	.	.	.	.	.
[8F#X\J	.	.	[<8e^/ [<8g#X [8cc [>8ee	8r	.	.	8r	.	.	.
!	!	!	!LO:TX:b:i:t=rit. molto	!	!	!	!	!	!	!
8F#/L]	.	.	4cc;/] 4ee_	8e\L] 8g#]	.	.	4r	.	.	.
[8EE/ [8BB [8G#X	.	.	.	[8d\ [8b	.	.	.	.	.	.
8EE/J] 8BB] 8G#]	.	.	16ee/LL]	8d\J] 8b]	.	.	8r	.	.	.
.	.	.	16cc/JJ	.	.	.	.	.	.	.
*	*	*	*v	*v	*	*	*	*	*	*
=50||	=50||	=50||	=50||	=50||	=50||	=50||	=50||	=50||	=50||
*M4/4	*	*	*M4/4	*	*	*M4/4	*	*	*
*met(c)	*	*	*met(c)	*	*	*met(c)	*	*	*
*8ba	*	*	*	*	*	*	*	*	*
*^	*	*	*	*	*	*	*	*	*
!	!	!	!	!LO:TX:a:B:t=Grave, tempo di marcia.	!	!	!	!	!	!
4r	1AAAA^> 1AAA	.	.	4r	.	.	1r	.	.	.
!LO:TX:a:i:t=loco	!	!	!	!	!	!	!	!	!	!
2AAA/ 2CC 2FF	.	.	.	8.A/L	.	.	.	.	.	.
.	.	.	.	16c/Jk	.	.	.	.	.	.
.	.	.	.	[2A/	.	.	.	.	.	.
4AAA/ 4CC 4EE	.	.	.	.	.	.	.	.	.	.
*v	*v	*	*	*	*	*	*	*	*	*
*X8ba	*	*	*	*	*	*	*	*	*
=51	=51	=51	=51	=51	=51	=51	=51	=51	=51
*8ba	*	*	*	*	*	*	*	*	*
*^	*	*	*^	*	*	*	*	*	*
4r	1AAAA 1AAA	.	.	4A/]	4ryy	.	.	1r	.	.	.
2AAA/ 2CC 2FF	.	.	.	8.A/L	4A\	.	.	.	.	.	.
.	.	.	.	16e/Jk	.	.	.	.	.	.	.
.	.	.	.	(<[2A\	4ryy	.	.	.	.	.	.
4AAA/ 4EE	.	.	.	.	4G\)	.	.	.	.	.	.
*v	*v	*	*	*	*	*	*	*	*	*	*
*	*	*	*v	*v	*	*	*	*	*	*
*X8ba	*	*	*	*	*	*	*	*	*
=52	=52	=52	=52	=52	=52	=52	=52	=52	=52
*8ba	*	*	*	*	*	*	*	*	*
*^	*	*	*^	*	*	*	*	*	*
4r	1AAAA^> 1AAA	.	.	4A/])	4F\	.	.	1r	.	.	.
2AAA/ 2DD 2FF	.	.	.	8.d/L	2A\	.	.	.	.	.	.
.	.	.	.	16f/Jk	.	.	.	.	.	.	.
.	.	.	.	2d/	.	.	.	.	.	.	.
4AAA/ 4DD 4FF	.	.	.	.	4A\	.	.	.	.	.	.
*v	*v	*	*	*	*	*	*	*	*	*	*
*	*	*	*v	*v	*	*	*	*	*	*
*X8ba	*	*	*	*	*	*	*	*	*
=53	=53	=53	=53	=53	=53	=53	=53	=53	=53
*8ba	*	*	*	*	*	*	*	*	*
*^	*	*	*^	*	*	*	*	*	*
4r	1AAAA^> 1AAA	.	.	4r	4ryy	.	<	1r	.	.	.
2AAA/ 2FF	.	.	.	8.d/L	4A\ 4B	.	.	.	.	.	.
.	.	.	.	16b/Jk	.	.	.	.	.	.	.
.	.	.	.	2B/ 2d 2f 2a 2b	2ryy	.	[	.	.	.	.
4AAA/ 4DD 4FF 4AA	.	.	.	.	.	.	.	.	.	.	.
*v	*v	*	*	*	*	*	*	*	*	*	*
*	*	*	*v	*v	*	*	*	*	*	*
*X8ba	*	*	*	*	*	*	*	*	*
!!LO:LB:g=original	!	!	!	!	!	!	!	!	!
=54	=54	=54	=54	=54	=54	=54	=54	=54	=54
*8ba	*	*	*	*	*	*	*	*	*
*^	*	*	*^	*	*	*	*	*	*
!	!	!	!LO:HP:a:t=poco cresc.	!	!	!	!	!	!	!	!
4r	1AAAA^> 1AAA	.	>	4r	4ryy	.	.	8r	.	.	.
.	.	.	.	.	.	.	.	8ee\	Nie	Kein	.
2AAA/ 2EE	.	.	.	8.A/L 8.a	4e/	.	.	8ee\	od	Rit-	.
.	.	.	.	.	.	.	.	8ee\	ry-	-ter-	.
.	.	.	.	16c/Jk 16cc	.	.	.	.	.	.	.
.	.	.	.	4f/	[2A/ [2a	.	.	[<4dd#X\	-cer-	-schwert	.
4AAA/ 4EE	.	.	.	[<4d#X/	.	.	.	8dd#\]	-skiej	.	.
.	.	.	.	.	.	.	.	8r	.	.	.
*v	*v	*	*	*	*	*	*	*	*	*	*
*	*	*	*v	*v	*	*	*	*	*	*
*X8ba	*	*	*	*	*	*	*	*	*
=55	=55	=55	=55	=55	=55	=55	=55	=55	=55
*8ba	*	*	*	*	*	*	*	*	*
*^	*	*	*^	*	*	*^	*	*	*
4r	1AAAA^> 1AAA	.	.	4A/] 4d#] 4a]	2ryy	.	.	4a/	4ryy	zgi-	schlug	.
*	*	*	*	*	*	*	*	*	*Xtuplet	*	*	*
!	!	!	!	!	!	!	!	!LO:TUP:a:problem:klamra łukowa	!	!	!	!
2AAA/ 2FF	.	.	.	8.A/L 8.dn 8.f 8.a	.	.	.	12a/L	12a\L	-nął	ihn	.
.	.	.	.	.	.	.	.	12b/J	12b\	.	.	.
.	.	.	.	.	.	.	.	12cc/	12cc\J	on	.	.
.	.	.	.	16e/Jk 16ee	.	.	.	.	.	.	.	.
.	.	.	.	2a/	(<(4A\ 4a	.	.	4a/	2ryy	sta-	nie-	.
4AAA/ 4EE	.	.	.	.	4G\)) 4g	.	.	4e/	.	-li	-der,	.
*v	*v	*	*	*	*	*	*	*v	*v	*	*	*
*	*	*	*v	*v	*	*	*	*	*	*
*X8ba	*	*	*	*	*	*	*	*	*
=56	=56	=56	=56	=56	=56	=56	=56	=56	=56
*8ba	*	*	*	*	*	*	*	*	*
*^	*	*	*	*	*	*^	*	*	*
4r	1AAAA 1AAA	.	.	4r	.	.	(8d/L	4ryy	wznie-	Kein	.
.	.	.	.	.	.	.	8e/J)	.	.	.	.
*	*	*	*	*	*	*	*	*cue	*	*	*
*	*	*	*	*	*	*	*	*tuplet	*	*	*
2AAA/ 2BBB 2DD 2FF 2AA	.	.	.	8.d\L 8.f 8.a 8.dd	.	.	8f/	8f\	-śli	Grab-	.
.	.	.	.	.	.	.	16r	8a\	.	-stein	.
.	.	.	.	16f\Jk 16ff	.	.	16a/	.	mo-	.	.
*	*	*	*	*	*	*	*	*Xcue	*	*	*
.	.	.	.	4d/ 4f 4a 4dd	.	.	(<([4cc\	4ryy	-gi-	.	.
!	!	!	!	!	!	!	!	!LO:TUP:a:problem:klamra łukowa	!	!	!
4AAA/ 4DD 4FF	.	.	.	4A/ 4B 4d 4f 4a	.	<	12cc\])	12cc\L	.	wird	.
.	.	.	.	.	.	.	12b/)	12b\J	-łę	.	.
.	.	.	.	.	.	.	12a/	12a\yy	wy-	ihm	.
*v	*v	*	*	*	*	*	*v	*v	*	*	*
*X8ba	*	*	*	*	*	*	*	*	*
=57	=57	=57	=57	=57	=57	=57	=57	=57	=57
*8ba	*	*	*	*	*	*	*	*	*
*^	*	*	*	*	*	*	*	*	*
4r	1AAAA 1AAA	.	.	8r	.	.	(4cc\	-so-	wer-	.
.	.	.	.	4g#X\ 4b 4dd 4ff 4gg#X	.	[[	.	.	.	.
2AAA/ 2DD 2FF 2BB	.	.	.	.	.	.	4e/)	-ką,	-den	.
.	.	.	.	8a\ 8dd 8ff 8aa	.	.	.	.	.	.
.	.	.	.	2a\ 2b 2dd 2ff 2bb	.	.	4r	.	.	.
4AAA/ 4DD 4FF 4GG#X	.	.	.	.	.	.	8r	.	.	.
.	.	.	.	.	.	.	(>8e/	A	.	.
*v	*v	*	*	*	*	*	*	*	*	*
*X8ba	*	*	*	*	*	*	*	*	*
!!LO:LB:g=original	!	!	!	!	!	!	!	!	!
=58	=58	=58	=58	=58	=58	=58	=58	=58	=58
*8ba	*	*	*	*	*	*	*	*	*
*^	*	*	*^	*	*	*^	*	*	*
4r	1AAAA 1AAA	.	.	4r	2ryy	.	.	4.ee/)	4ee\	i-	So	.
*	*	*	*	*	*	*	*	*	*cue	*	*	*
2FF/ 2AA 2C 2F	.	.	.	8.a\L 8.cc 8.ee 8.aa	.	.	.	.	8ee\	.	vie-	.
.	.	.	.	.	.	.	.	8ee/	8ee\	-le	-le	.
.	.	.	.	16cc\Jk 16ccc	.	.	.	.	.	.	.	.
*	*	*	*	*	*	*	*	*	*Xcue	*	*	*
.	.	.	.	[<2a\ 2cc [2ff [2aa	(>4cc/	.	.	4a/	2ryy	gar-	Schol-	.
!	!	!	!	!LO:TX:b:i:t=poco	!	!	!	!	!	!	!	!
4FF/ 4BB 4D 4F	.	.	.	.	[>4dd/)	.	.	4a/	.	-ści	-len	.
*v	*v	*	*	*	*	*	*	*v	*v	*	*	*
*	*	*	*v	*v	*	*	*	*	*	*
*X8ba	*	*	*	*	*	*	*	*	*
=59	=59	=59	=59	=59	=59	=59	=59	=59	=59
*8ba	*	*	*	*	*	*	*	*	*
*^	*	*	*	*	*	*^	*	*	*
!	!	!	!	!LO:TX:b:i:t=a	!	!	!	!	!	!	!
4r	1AAAA 1AAA	.	.	8a\L] 8dd] 8ff] 8aa]	.	.	4a/	[4a\	pia-	fie-	.
.	.	.	.	8a\ 8dd 8ff 8aa	.	.	.	.	.	.	.
*	*	*	*	*	*	*	*	*Xtuplet	*	*	*
!	!	!	!	!	!	!	!LO:TUP:a:problem:klamra łukowa	!	!	!	!
2AAA/ 2DD 2FF 2BB	.	.	.	8b\ 8dd 8ff 8bb	.	.	12a/L	(12a\]	-sku	.	.
.	.	.	.	.	.	.	12b/J	12b\L)	.	-len	.
!	!	!	!	!LO:TX:b:i:t=poco	!	!	!	!	!	!	!
.	.	.	.	8cc\J 8dd 8ff 8ccc	.	.	.	.	.	.	.
.	.	.	.	.	.	.	12cc/	12cc\J	sy-	.	.
.	.	.	.	[2dd\ [2ff [2aa [2ddd	.	.	4dd\	2ryy	-pa-	nie-	.
4AAA/ 4DD 4FF 4BB	.	.	.	.	.	.	4dd\	.	-li	-der,	.
*v	*v	*	*	*	*	*	*v	*v	*	*	*
*X8ba	*	*	*	*	*	*	*	*	*
=60	=60	=60	=60	=60	=60	=60	=60	=60	=60
*8ba	*	*	*	*	*	*	*	*	*
*^	*	*	*	*	*	*	*	*	*
!	!	!	!	!LO:TX:b:i:t=più	!	!	!	!	!	!
4r	1AAAA 1AAA	.	.	8dd\] 8ff] 8aa] 8ddd]	.	.	4dd\	Ty-	So	.
.	.	.	.	4dd\ 4ff 4aa 4ddd	.	.	.	.	.	.
2AAA/ 2DD 2FF 2BB	.	.	.	.	.	.	8.dd\	-le	vie-	.
!	!	!	!	!LO:TX:b:i:t=mosso	!	!	!	!	!	!
.	.	.	.	8ee\ 8aa 8ccc 8eee	.	.	.	.	.	.
.	.	.	.	.	.	.	16ee\	mu	-le	.
.	.	.	.	((4ff\ 4gg [4aa [4ccc#X 4fff	.	.	4ff\	prze-	Flü-	.
4EE/ 4AA 4C#X 4E	.	.	.	4ee\)) 4aa] 4ccc#] 4eee	.	.	4ee\	-kleństw	-che	.
*v	*v	*	*	*	*	*	*	*	*	*
*X8ba	*	*	*	*	*	*	*	*	*
=61	=61	=61	=61	=61	=61	=61	=61	=61	=61
*8ba	*	*	*	*	*	*	*	*	*
*^	*	*	*	*	*	*^	*	*	*
4r	1AAAA 1AAA	.	.	8r	.	.	(4ee\	4ryy	z pia-	hall-	.
*	*	*	*	*8va	*	*	*	*tuplet	*	*	*
.	.	.	.	4ee/ 4gg 4bb-X 4eee	.	.	.	.	.	.	.
!	!	!	!	!	!	!	!	!LO:TUP:a:problem:klamra łukowa	!	!	!
2DD/ 2GG 2BB-X 2D	.	.	.	.	.	.	12dd/L)	12dd\L	.	-ten	.
.	.	.	.	.	.	.	12cc#X/J	12cc#\	-skiem	.	.
.	.	.	.	8ff\ 8fff	.	.	.	.	.	.	.
.	.	.	.	.	.	.	12dd/	12dd\J	po-	.	.
.	.	.	.	4gg\ 4bb- 4ccc#X 4ggg	.	<	4ee\	2ryy	-sła-	wie-	.
4DD/ 4GG 4BB- 4D	.	.	.	8.gg\L 8.bb- 8.ccc# 8.ggg	.	.	8ee\	.	-li,	-der,	.
.	.	.	.	.	.	.	8ee\	.	Mój	Mein	.
.	.	.	.	16aa\Jk 16ccc# 16eee 16aaa	.	[[	.	.	.	.	.
*v	*v	*	*	*	*	*	*v	*v	*	*	*
*X8ba	*	*	*X8va	*	*	*	*	*	*
!!LO:PB:g=original	!	!	!	!	!	!	!	!	!
=62	=62	=62	=62	=62	=62	=62	=62	=62	=62
*8ba	*	*	*8va	*	*	*	*	*	*
*^	*	*	*	*	*	*	*	*	*
4r	1AAAA 1AAA	.	.	4bb-X\ 4ccc#X 4eee 4ggg 4bbb-X	.	ff	(2gg\	lu-	Lieb-	.
*	*	*	*	*X8va	*	*	*	*	*	*
2AAA/ 2CC#X 2EE 2GG	.	.	.	2b-\ 2cc# 2ee 2gg 2bb-	.	.	.	.	.	.
.	.	.	.	.	.	.	4b-X\)	-by	-ster	.
4AAA/ 4CC# 4EE 4GG	.	.	.	4B-X/ 4c#X 4e 4g 4b-	.	>	4r	.	.	.
*v	*v	*	*	*	*	*	*	*	*	*
*X8ba	*	*	*	*	*	*	*	*	*
=63	=63	=63	=63	=63	=63	=63	=63	=63	=63
*8ba	*	*	*	*	*	*	*	*	*
*^	*	*	*	*	*	*	*	*	*
4r	1AAAA 1AAA	.	.	4r	.	.	4a/	śpi	schläft	.
2.AAA/ 2.EE	.	.	.	2A/ 2cn 2e 2a	.	]]	8.a/	on	in	.
.	.	.	.	.	.	.	16cc\	głę-	der	.
.	.	.	.	.	.	.	4ee\	-bo-	Er-	.
!	!	!	!	!LO:TX:b:i:t=piu tranquillo	!	!	!	!	!	!
.	.	.	.	4A/ 4c 4e	.	.	4a/	-ko.	-den.	.
*v	*v	*	*	*	*	*	*	*	*	*
*X8ba	*	*	*	*	*	*	*	*	*
=64	=64	=64	=64	=64	=64	=64	=64	=64	=64
*8ba	*	*	*	*	*	*	*	*	*
*^	*	*	*^	*	*	*	*	*	*
4r	1AAAA 1AAA	.	.	4r	4ryy	.	.	1r	.	.	.
2AAA/ 2FF	.	.	.	8.g/L	4B\ 4d	.	.	.	.	.	.
.	.	.	.	16a/Jk	.	.	.	.	.	.	.
.	.	.	.	[2c#X/ [2f	(4B\	.	.	.	.	.	.
4AAA/ 4CC#X 4FF	.	.	.	.	[4A\)	.	.	.	.	.	.
*v	*v	*	*	*	*	*	*	*	*	*	*
*	*	*	*v	*v	*	*	*	*	*	*
*X8ba	*	*	*	*	*	*	*	*	*
=65	=65	=65	=65	=65	=65	=65	=65	=65	=65
*8ba	*	*	*	*	*	*	*	*	*
*^	*	*	*	*	*	*^	*	*	*
*	*	*	*	*	*	*	*	*cue	*	*	*
4r	1AAAA 1AAA	.	.	4A/] 4c#] 4f]	.	.	1r	2r	.	.	.
2AAA/ 2EE	.	.	.	2G#X/ 2Bn 2e	.	.	.	.	.	.	.
.	.	.	.	.	.	.	.	4r	.	.	.
4AAA/ 4EE	.	.	.	4Gn/ 4B-X 4e	.	.	.	8r	.	.	.
.	.	.	.	.	.	.	.	8e\	.	Er	.
*	*	*	*	*	*	*	*	*Xcue	*	*	*
*v	*v	*	*	*	*	*	*v	*v	*	*	*
*X8ba	*	*	*	*	*	*	*	*	*
=66	=66	=66	=66	=66	=66	=66	=66	=66	=66
*8ba	*	*	*	*	*	*	*	*	*
*^	*	*	*^	*	*	*	*	*	*
4r	1AAAA 1AAA	.	.	4r	4ryy	.	.	4b-X\	Prze-	hört	.
2BBB-X/ 2CC#X 2EE 2GG	.	.	.	2.g/ 2.b-X	[4B-X\ [4c#X [4e	.	.	8b-\	-kleństw	nicht	.
.	.	.	.	.	.	.	.	16r	.	.	.
.	.	.	.	.	.	.	.	16b-\	nie	die	.
.	.	.	.	.	4B-\] 4c#] 4e]	.	.	8g/	sły-	Flü-	.
.	.	.	.	.	.	.	.	8g/	-szał,	-che,	.
4BBB-/ 4CC# 4EE 4GG	.	.	.	.	4B-\ 4c# 4e	.	.	4r	.	.	.
*v	*v	*	*	*	*	*	*	*	*	*	*
*	*	*	*v	*v	*	*	*	*	*	*
*X8ba	*	*	*	*	*	*	*	*	*
!!LO:LB:g=original	!	!	!	!	!	!	!	!	!
=67	=67	=67	=67	=67	=67	=67	=67	=67	=67
*8ba	*	*	*	*	*	*	*	*	*
*^	*	*	*	*	*	*^	*	*	*
4r	1AAAA 1AAA	.	.	4r	.	.	8r	2ryy	.	.	.
.	.	.	.	.	.	.	8e/	.	nie	hört	.
!	!	!	!	!	!	!LO:HP:b:t=poco dim.	!	!	!	!	!
2AAA/ 2CC#X 2FF	.	.	.	2A/ 2c#X 2f 2a	.	>	8f/	.	sły-	nicht	.
.	.	.	.	.	.	.	8g/	.	-szał	das	.
.	.	.	.	.	.	.	4a/	4ryy	pła-	Wim-	.
4AAA/ 4CC# 4FF	.	.	.	4A/ 4c# 4f	.	.	8a/	4a\	-czu	-mern	.
.	.	.	.	.	.	.	16r	.	.	.	.
.	.	.	.	.	.	.	16a/	.	nikt	.	.
*v	*v	*	*	*	*	*	*v	*v	*	*	*
*X8ba	*	*	*	*	*	*	*	*	*
=68	=68	=68	=68	=68	=68	=68	=68	=68	=68
*8ba	*	*	*	*	*	*	*Xcue	*	*
*	*	*	*	*	*	*^	*	*	*
[1AAAA [1AAA	.	.	8r	.	.	4cc/	2ryy	nie	To-	.
.	.	.	((4c/ 4d#X 4f#X 4a 4cc	.	.	.	.	.	.	.
.	.	.	.	.	.	8.cc/	.	wdział	-ten-	.
.	.	.	8B/)) 8d# 8f# 8b	.	.	.	.	.	.	.
.	.	.	.	.	.	16b/	.	ża-	-ge-	.
*	*	*	*	*	*	*	*cue	*	*	*
.	.	.	8A/ 8d# 8f# 8a	.	.	(8a/	8a\	-łob-	-wän-	.
.	.	.	4G#X/ [4e 4g#X	.	.	4g#X/)	8g#\	.	-der	.
.	.	.	.	.	.	.	8r	.	.	.
.	.	.	8A/ 8e] 8a	.	.	8a/	8a\	-nej	trug	.
*X8ba	*	*	*	*	*	*	*Xcue	*	*	*
*8ba	*	*	*	*	*	*	*Xcue	*	*	*
=69	=69	=69	=69	=69	=69	=69	=69	=69	=69	=69
2.AAAA/] 2.AAA]	.	.	[4B/ 4d#X 4f [4b	.	.	4.b\	2ryy	sza-	kei-	.
.	.	.	4B/] 4dn 4g#X 4b]	.	.	.	.	.	.	.
.	.	.	.	.	.	8b\	.	-ty	-ne,	.
.	.	.	4r	.	.	4r	4ryy	.	.	.
4r	.	.	4B/ 4b	.	.	4r	8r	.	.	.
.	.	.	.	.	.	.	8b\	.	Den	.
*X8ba	*	*	*	*	*	*	*	*	*	*
*	*	*	*	*	*	*v	*v	*	*	*
=70	=70	=70	=70	=70	=70	=70	=70	=70	=70
*8ba	*	*	*	*	*	*	*	*	*
*^	*	*	*	*	*	*^	*	*	*
4r	1AAAA 1AAA	.	.	(>1d 1f 1a (1dd	.	.	4dd\	4ryy	Pia-	Wand-	.
2AAA/ 2DD 2FF 2AA	.	.	.	.	.	.	8.dd/	8dd\L	-sek	-rer	.
.	.	.	.	.	.	.	.	8cc\J	.	.	.
.	.	.	.	.	.	.	16cc/	.	po-	.	.
*	*	*	*	*	*	*	*	*cue	*	*	*
.	.	.	.	.	.	.	4b/	4b\	-kry-	de-	.
!LO:TX:t=P:problem: ligatury obecne w t. 70, brak połączenia z taktem kolejnym	!	!	!	!	!	!	!	!	!	!	!
4AAA/ 4DD 4FF 4AA	.	.	.	.	.	.	(8a/L	8a\	-wa	-cket	.
.	.	.	.	.	.	.	8b/J)	8b\	.	ein	.
*	*	*	*	*	*	*	*	*Xcue	*	*	*
*v	*v	*	*	*	*	*	*v	*v	*	*	*
*X8ba	*	*	*	*	*	*	*	*	*
=71	=71	=71	=71	=71	=71	=71	=71	=71	=71
*8ba	*	*	*	*	*	*	*	*	*
*^	*	*	*	*	*	*^	*	*	*
4r	1AAAA 1AAA	.	.	[1e) [>1a [1cc [1ee)	.	.	4cc\	4ryy	grób	Grab	.
*	*	*	*	*	*	*	*v	*v	*	*	*
*	*	*	*	*	*	*	*^	*	*	*
2AAA/ 2CC 2EE 2AA	.	.	.	.	.	.	8.cc/	(8.cc\L	na	von	.
.	.	.	.	.	.	.	16b/	16b\Jk)	tu-	.	.
.	.	.	.	.	.	.	4a/	2ryy	-ła-	Trüm-	.
4AAA/ 4CC 4EE 4AA	.	.	.	.	.	.	4a/	.	-czu	-mern,	.
*v	*v	*	*	*	*	*	*v	*v	*	*	*
*X8ba	*	*	*	*	*	*	*	*	*
=72	=72	=72	=72	=72	=72	=72	=72	=72	=72
*8ba	*	*	*	*	*	*	*	*	*
*^	*	*	*	*	*	*	*	*	*
4r	1AAAA 1AAA	.	.	4e/] 4a] 4cc] 4ee]	.	.	8r	.	.	.
.	.	.	.	.	.	.	8ee\	Ja	Ich	.
4EE/ 4FF 4AA 4C	.	.	.	4e/ 4f 4a 4ee	.	.	8ee\	co-	ho-	.
.	.	.	.	.	.	.	8e/	-dzień	-le	.
4DD/ 4FF 4AA	.	.	.	4d/ 4f 4a 4dd	.	.	4f/	i-	Blu-	.
8CC/L 8FF 8AA	.	.	.	8c/L [8f [8a 8cc	.	.	8f/	-dę,	-men	.
8DD/J 8FF 8AA	.	.	.	8d/J 8f] 8a] 8dd	.	.	16r	.	.	.
.	.	.	.	.	.	.	16cc\	po	al-	.
*v	*v	*	*	*	*	*	*	*	*	*
*X8ba	*	*	*	*	*	*	*	*	*
=73	=73	=73	=73	=73	=73	=73	=73	=73	=73
*8ba	*	*	*	*	*	*	*	*	*
*^	*	*	*	*	*	*	*	*	*
!	!	!	!	!	!	!LO:HP:b:t=poco dim. e morendo	!	!	!	!
4r	1AAAA 1AAA	.	.	8e/ 8a 8cc 8ee	.	>	4.a/	kwia-	-lei-	.
.	.	.	.	4ee\ 4aa 4ccc 4eee	.	.	.	.	.	.
4EE/ 4AA 4C 4E	.	.	.	.	.	.	.	.	.	.
.	.	.	.	8ee\ 8aa 8ccc 8eee	.	.	[8a/	-ty	-ne.	.
4FF/ 4AA 4C 4F	.	.	.	2dd#X\ 2aa 2ccc 2ddd#X	.	.	4a/]	.	.	.
4FF/ 4AA 4C 4F	.	.	.	.	.	.	4r	.	.	.
*X8ba	*	*	*	*	*	*	*	*	*	*
*v	*v	*	*	*	*	*	*	*	*	*
=74	=74	=74	=74	=74	=74	=74	=74	=74	=74
*8ba	*	*	*	*	*	*	*	*	*
*^	*	*	*	*	*	*	*	*	*
4r	1AAAA 1AAA	.	.	8r	.	.	1r	.	.	.
.	.	.	.	4cc\ 4ee 4aa 4ccc	.	.	.	.	.	.
4EE/ 4AA 4C 4E	.	.	.	.	.	.	.	.	.	.
.	.	.	.	8cc\ 8ee 8aa 8ccc	.	.	.	.	.	.
4FF/ 4BB 4D 4F	.	.	.	2a\ 2dd 2ff 2aa	.	.	.	.	.	.
4FF/ 4BB 4D 4F	.	.	.	.	.	.	.	.	.	.
*X8ba	*	*	*	*	*	*	*	*	*	*
*v	*v	*	*	*	*	*	*	*	*	*
!!LO:LB:g=original	!	!	!	!	!	!	!	!	!
=75	=75	=75	=75	=75	=75	=75	=75	=75	=75
*8ba	*	*	*	*	*	*	*	*	*
1AAAA 1AAA	.	.	8r	.	.	1r	.	.	.
.	.	.	4e~>/ 4a 4cc 4ee	.	>	.	.	.	.
.	.	.	4c~>/ 4e 4a 4cc	.	]]	.	.	.	.
.	.	.	4B~>/ 4d 4f 4a	.	.	.	.	.	.
.	.	.	8A/ 8B 8d 8f	.	.	.	.	.	.
*X8ba	*	*	*	*	*	*	*	*	*
=76	=76	=76	=76	=76	=76	=76	=76	=76	=76
*8ba	*	*	*	*	*	*	*	*	*
*^	*	*	*	*	*	*	*	*	*
4r	1AAAA 1AAA	.	.	4r	.	p	1r	.	.	.
[<2AAA/ 2FF	.	.	.	8.A/L	.	.	.	.	.	.
.	.	.	.	16c/Jk	.	.	.	.	.	.
.	.	.	.	[2A/	.	.	.	.	.	.
4AAA/] 4EE	.	.	.	.	.	.	.	.	.	.
*X8ba	*	*	*	*	*	*	*	*	*	*
*v	*v	*	*	*	*	*	*	*	*	*
=77	=77	=77	=77	=77	=77	=77	=77	=77	=77
*8ba	*	*	*	*	*	*	*	*	*
*^	*	*	*	*	*	*	*	*	*
4r	1AAAA 1AAA	.	.	4A/]	.	.	1r	.	.	.
2AAA/ 2FF	.	.	.	8.A/L	.	.	.	.	.	.
.	.	.	.	16e/Jk	.	.	.	.	.	.
.	.	.	.	4A/	.	.	.	.	.	.
[4AAA/ [4EE	.	.	.	[4G/	.	.	.	.	.	.
*X8ba	*	*	*	*	*	*	*	*	*	*
*v	*v	*	*	*	*	*	*	*	*	*
=78	=78	=78	=78	=78	=78	=78	=78	=78	=78
*8ba	*	*	*	*	*	*	*	*	*
*^	*	*	*	*	*	*	*	*	*
4AAA/] 4EE]	1AAAA 1AAA	.	.	4G/]	.	.	1r	.	.	.
*X8ba	*	*	*	*	*	*	*	*	*	*
[<2AA/ 2E	.	.	.	N[2.F/	.	.	.	.	.	.
4AA/_< [<4D	.	.	.	.	.	.	.	.	.	.
*v	*v	*	*	*	*	*	*	*	*	*
=79	=79	=79	=79	=79	=79	=79	=79	=79	=79
4AA\] 4D]	.	.	4F</N]	.	pp	8r	.	.	.
.	.	.	.	.	.	8r	.	.	.
*8ba	*	*	*	*	*	*	*	*	*
2.AAAA;<\	.	.	2.AA</ 2.E<	.	ppp	4r	.	.	.
.	.	.	.	.	.	2r	.	.	.
*X8ba	*	*	*	*	*	*	*	*	*
==	==	==	==	==	==	==	==	==	==
*-	*-	*-	*-	*-	*-	*-	*-	*-	*-
!!!system-decoration: s1{(s2,s3)}
!!!RDF**kern: > = above
!!!RDF**kern: < = below
!!!RDF**kern: N = linked
!!!ENC: Andrzej Gręziak
!!!END: 2022-07-21
!!!ENC: Jan Barakat
!!!END: 2022-08-15
!!!YEC: Copyright 2022 Narodowy Instytut Fryderyka Chopina (https://polishscores.org)
!!!YEM: License CC-BY-4.0 (https://creativecommons.org/licenses/by/4.0)
